static/img/kroki/11896340f3f1bc419e8a605c5206abf6.svg

<?xml version="1.0" encoding="us-ascii" standalone="no"?><svg xmlns="http://www.w3.org/2000/svg" xmlns:xlink="http://www.w3.org/1999/xlink" contentStyleType="text/css" height="252px" preserveAspectRatio="none" style="width:206px;height:252px;" version="1.1" viewBox="0 0 206 252" width="206px" zoomAndPan="magnify"><defs/><g><!--class aws_ec2_flow_log--><g id="elem_aws_ec2_flow_log"><rect codeLine="22" fill="#3D176E" height="39.7891" id="aws_ec2_flow_log" rx="2.5" ry="2.5" style="stroke:#000D19;stroke-width:0.5;" width="192" x="7" y="106.79"/><ellipse cx="22" cy="126.6845" fill="#ADD1B2" rx="11" ry="11" style="stroke:#181818;stroke-width:1.0;"/><path d="M24.9688,132.3252 Q24.3906,132.622 23.75,132.7627 Q23.1094,132.9189 22.4063,132.9189 Q19.9063,132.9189 18.5781,131.2783 Q17.2656,129.622 17.2656,126.497 Q17.2656,123.372 18.5781,121.7158 Q19.9063,120.0595 22.4063,120.0595 Q23.1094,120.0595 23.75,120.2158 Q24.4063,120.372 24.9688,120.6689 L24.9688,123.3877 Q24.3438,122.8095 23.75,122.5439 Q23.1563,122.2627 22.5313,122.2627 Q21.1875,122.2627 20.5,123.3408 Q19.8125,124.4033 19.8125,126.497 Q19.8125,128.5908 20.5,129.6689 Q21.1875,130.7314 22.5313,130.7314 Q23.1563,130.7314 23.75,130.4658 Q24.3438,130.1845 24.9688,129.6064 L24.9688,132.3252 Z " fill="#000000"/><text fill="#D9B8FF" font-family="Helvetica" font-size="17" lengthAdjust="spacing" textLength="150" x="41" y="132.5698">aws_ec2_flow_log</text></g><!--class aws_s3_bucket--><g id="elem_aws_s3_bucket"><rect codeLine="24" fill="#3D176E" height="39.7891" id="aws_s3_bucket" rx="2.5" ry="2.5" style="stroke:#000D19;stroke-width:0.5;" width="168" x="19" y="206.58"/><ellipse cx="34" cy="226.4745" fill="#ADD1B2" rx="11" ry="11" style="stroke:#181818;stroke-width:1.0;"/><path d="M36.9688,232.1152 Q36.3906,232.412 35.75,232.5527 Q35.1094,232.7089 34.4063,232.7089 Q31.9063,232.7089 30.5781,231.0683 Q29.2656,229.412 29.2656,226.287 Q29.2656,223.162 30.5781,221.5058 Q31.9063,219.8495 34.4063,219.8495 Q35.1094,219.8495 35.75,220.0058 Q36.4063,220.162 36.9688,220.4589 L36.9688,223.1777 Q36.3438,222.5995 35.75,222.3339 Q35.1563,222.0527 34.5313,222.0527 Q33.1875,222.0527 32.5,223.1308 Q31.8125,224.1933 31.8125,226.287 Q31.8125,228.3808 32.5,229.4589 Q33.1875,230.5214 34.5313,230.5214 Q35.1563,230.5214 35.75,230.2558 Q36.3438,229.9745 36.9688,229.3964 L36.9688,232.1152 Z " fill="#000000"/><text fill="#D9B8FF" font-family="Helvetica" font-size="17" lengthAdjust="spacing" textLength="126" x="53" y="232.3598">aws_s3_bucket</text></g><!--class aws_vpc--><g id="elem_aws_vpc"><rect codeLine="26" fill="#3D176E" height="39.7891" id="aws_vpc" rx="2.5" ry="2.5" style="stroke:#000D19;stroke-width:0.5;" width="112" x="47" y="7"/><ellipse cx="62" cy="26.8945" fill="#ADD1B2" rx="11" ry="11" style="stroke:#181818;stroke-width:1.0;"/><path d="M64.9688,32.5352 Q64.3906,32.832 63.75,32.9727 Q63.1094,33.1289 62.4063,33.1289 Q59.9063,33.1289 58.5781,31.4883 Q57.2656,29.832 57.2656,26.707 Q57.2656,23.582 58.5781,21.9258 Q59.9063,20.2695 62.4063,20.2695 Q63.1094,20.2695 63.75,20.4258 Q64.4063,20.582 64.9688,20.8789 L64.9688,23.5977 Q64.3438,23.0195 63.75,22.7539 Q63.1563,22.4727 62.5313,22.4727 Q61.1875,22.4727 60.5,23.5508 Q59.8125,24.6133 59.8125,26.707 Q59.8125,28.8008 60.5,29.8789 Q61.1875,30.9414 62.5313,30.9414 Q63.1563,30.9414 63.75,30.6758 Q64.3438,30.3945 64.9688,29.8164 L64.9688,32.5352 Z " fill="#000000"/><text fill="#D9B8FF" font-family="Helvetica" font-size="17" lengthAdjust="spacing" textLength="70" x="81" y="32.7798">aws_vpc</text></g><!--link aws_ec2_flow_log to aws_s3_bucket--><g id="link_aws_ec2_flow_log_aws_s3_bucket"><path codeLine="28" d="M103,147.01 C103,162.28 103,183.71 103,200.32 " fill="none" id="aws_ec2_flow_log-to-aws_s3_bucket" style="stroke:#1A83AF;stroke-width:2.0;"/><polygon fill="#1A83AF" points="103,205.2,107,196.2,103,200.2,99,196.2,103,205.2" style="stroke:#1A83AF;stroke-width:2.0;"/></g><!--link aws_vpc to aws_ec2_flow_log--><g id="link_aws_vpc_aws_ec2_flow_log"><path codeLine="29" d="M103,47.22 C103,62.49 103,83.92 103,100.53 " fill="none" id="aws_vpc-to-aws_ec2_flow_log" style="stroke:#1A83AF;stroke-width:2.0;"/><polygon fill="#1A83AF" points="103,105.41,107,96.41,103,100.41,99,96.41,103,105.41" style="stroke:#1A83AF;stroke-width:2.0;"/></g><!--SRC=[XP3DQiCm48JlVWg1pu4ufdLyARY1q5v2QNehnSZIoX6s9REIOzBITs-TD4MnydET-NPsTZUI0u6cjJlIG5C0ci1KKhKKQKCoHDqlTAsHX49G4ITZSwcLlGciQ0Fa2UejMCdec7ZRI5OfC8RC7EkHigf4tIb-YBT8bVcrG5c7MjJKcCnQb4LdmId3qs8kn9WSXuOnZv9xy32D7F0FcKwdF4h7oCrLL-_-9zRo4qZaFcsbBNWrlHLxwchBWN1AUeSU_OiTNoZdKfNapj5U3vrG0PxewmtbkXzeGMlZhZ4M4BJTjR3mhe9qpaLo5dw-1BFXSuJs9WSsoqMj-xpM9VaAlXtBn7dHiGhiID-sRAzuuvFtCChcSRRyc3oS9WJ7EGzn0tu0]--></g></svg>

<svg xmlns="http://www.w3.org/2000/svg" width="206" height="252" preserveAspectRatio="none" style="width:206px;height:252px"><rect width="192" height="39.789" x="7" y="106.79" fill="#3D176E" rx="2.5" ry="2.5" style="stroke:#000d19;stroke-width:.5"/><circle cx="22" cy="126.684" r="11" fill="#ADD1B2" style="stroke:#181818;stroke-width:1"/><path d="M24.969 132.325q-.578.297-1.219.438-.64.156-1.344.156-2.5 0-3.828-1.64-1.312-1.657-1.312-4.782t1.312-4.781q1.328-1.656 3.828-1.656.703 0 1.344.156.656.156 1.219.453v2.719q-.625-.579-1.219-.844-.594-.281-1.219-.281-1.343 0-2.031 1.078-.688 1.062-.688 3.156 0 2.094.688 3.172.688 1.062 2.031 1.062.625 0 1.219-.265.594-.281 1.219-.86v2.72Z"/><text x="41" y="132.57" fill="#D9B8FF" font-family="Helvetica" font-size="17" textLength="150">aws_ec2_flow_log</text><rect width="168" height="39.789" x="19" y="206.58" fill="#3D176E" rx="2.5" ry="2.5" style="stroke:#000d19;stroke-width:.5"/><circle cx="34" cy="226.475" r="11" fill="#ADD1B2" style="stroke:#181818;stroke-width:1"/><path d="M36.969 232.115q-.578.297-1.219.438-.64.156-1.344.156-2.5 0-3.828-1.64-1.312-1.657-1.312-4.782t1.312-4.781q1.328-1.656 3.828-1.656.703 0 1.344.156.656.156 1.219.453v2.719q-.625-.578-1.219-.844-.594-.281-1.219-.281-1.343 0-2.031 1.078-.688 1.062-.688 3.156 0 2.094.688 3.172.688 1.062 2.031 1.062.625 0 1.219-.265.594-.281 1.219-.86v2.72Z"/><text x="53" y="232.36" fill="#D9B8FF" font-family="Helvetica" font-size="17" textLength="126">aws_s3_bucket</text><rect width="112" height="39.789" x="47" y="7" fill="#3D176E" rx="2.5" ry="2.5" style="stroke:#000d19;stroke-width:.5"/><circle cx="62" cy="26.895" r="11" fill="#ADD1B2" style="stroke:#181818;stroke-width:1"/><path d="M64.969 32.535q-.578.297-1.219.438-.64.156-1.344.156-2.5 0-3.828-1.64-1.312-1.657-1.312-4.782t1.312-4.781q1.328-1.656 3.828-1.656.703 0 1.344.156.656.156 1.219.453v2.719q-.625-.578-1.219-.844-.594-.281-1.219-.281-1.343 0-2.031 1.078-.688 1.062-.688 3.156 0 2.094.688 3.172.688 1.062 2.031 1.062.625 0 1.219-.265.594-.281 1.219-.86v2.72Z"/><text x="81" y="32.78" fill="#D9B8FF" font-family="Helvetica" font-size="17" textLength="70">aws_vpc</text><path fill="none" d="M103 147.01v53.31" style="stroke:#1a83af;stroke-width:2"/><path fill="#1A83AF" d="m103 205.2 4-9-4 4-4-4 4 9z" style="stroke:#1a83af;stroke-width:2"/><path fill="none" d="M103 47.22v53.31" style="stroke:#1a83af;stroke-width:2"/><path fill="#1A83AF" d="m103 105.41 4-9-4 4-4-4 4 9z" style="stroke:#1a83af;stroke-width:2"/></svg>
